X: 35218
T: Rory O'More
R: jig
M: 6/8
K: Amajor
|eAA cAA|eAAA a/g/f|edc cBA|GBB Bcd|
eAA cAA|eAA fec|def efg|aAAA fg||
agf c2c|dcB A2G|FGA ABc|cff efg|
agf c2c|dcB A2G|FGA ABc|cff eaf||

